X: 2
T:??? From De Dannan
M:4/4
L:1/8
R:Reel
Z:Gerry Strong
K:G
Bcdc BG ~G2|=FEDE =FGAc|dg ~g2 fgag|fdcB A=F =F2|Bcdc BG ~G2|=FEDE =FGAc
|dg
~g2 fgag|1fdcA G3 z:|2fdcA GABd|
g2 dg GdBd|c2 cd cAGE|DG ~G2 FGAc|Bcde fdef|g2 dg GdBd|c2 cd cAGE|DG ~G2
FGAc|BGAF G3 z|g2 dg GdBd|c2 cd cAGE|DG ~G2 FGAc|Bcde fdef|g2
(3g{a}fg)gdBd|c2 cd cAGE|DG ~G2 FGAc|Bz Az G4| |
<end>
<start>
